icons/ic_state_manual.svg

<svg width="16" height="16" viewBox="0 0 16 16" fill="none" xmlns="http://www.w3.org/2000/svg">
<path d="M8 0C3.58172 0 0 3.58172 0 8C0 12.4183 3.58172 16 8 16C12.4183 16 16 12.4183 16 8C16 3.58172 12.4183 0 8 0ZM10.1787 3.19824C10.4818 3.19739 10.7856 3.24869 11.0742 3.35253L9.48144 4.94531L9.92089 6.07908L11.0547 6.51853L12.6475 4.92579C12.9798 5.84931 12.7761 6.92313 12.0361 7.66311C11.2962 8.40308 10.2233 8.60672 9.2998 8.27444L4.77147 12.8018L3.19824 11.2285L7.72559 6.7002C7.39329 5.77669 7.59696 4.70385 8.33692 3.96387C8.84565 3.45513 9.51195 3.20012 10.1787 3.19824V3.19824ZM4.43457 10.9121C4.254 11.0927 4.254 11.3849 4.43457 11.5654C4.61513 11.746 4.90733 11.746 5.08789 11.5654C5.26845 11.3849 5.26845 11.0927 5.08789 10.9121C4.89217 10.7342 4.60321 10.7485 4.43457 10.9121Z" fill="#858895"/>
</svg>

<?xml version="1.0" encoding="utf-8"?>
<!-- Generator: Adobe Illustrator 24.0.0, SVG Export Plug-In . SVG Version: 6.00 Build 0)  -->
<svg version="1.1" id="Layer_1" xmlns="http://www.w3.org/2000/svg" xmlns:xlink="http://www.w3.org/1999/xlink" x="0px" y="0px"
	 viewBox="0 0 16 16" style="enable-background:new 0 0 16 16;" xml:space="preserve">
<style type="text/css">
	.st0{fill:#858895;}
</style>
<path class="st0" d="M8,0C3.6,0,0,3.6,0,8c0,4.4,3.6,8,8,8c4.4,0,8-3.6,8-8C16,3.6,12.4,0,8,0z M10.2,3.2c0.3,0,0.6,0.1,0.9,0.2
	L9.5,4.9l0.4,1.1l1.1,0.4l1.6-1.6c0.3,0.9,0.1,2-0.6,2.7c-0.7,0.7-1.8,0.9-2.7,0.6l-4.5,4.5l-1.6-1.6l4.5-4.5C7.4,5.8,7.6,4.7,8.3,4
	C8.8,3.5,9.5,3.2,10.2,3.2L10.2,3.2z M4.4,10.9c-0.2,0.2-0.2,0.5,0,0.7c0.2,0.2,0.5,0.2,0.7,0c0.2-0.2,0.2-0.5,0-0.7
	C4.9,10.7,4.6,10.7,4.4,10.9z"/>
</svg>
